X:396
T: LUSTIG IST DAS ZIGEUNERLEBEN
N: E1585
O: Europa, Mitteleuropa, Italien, Tirol, Meran
R: Staende - Lied, Zigeuner
M: 6/8
L: 1/16
K: F
 | c4c2c2d2e2 | f4c2A4F2
c4c2c2d2e2 | f4c2A4F2
d4d2f2e2d2 | d3cc2c6
B3BB2d2c2B2 | B2A2A2A6
B3AG2F3AA2 | c6c3de2 | f6
d6 | c3AA2c3BG2 | F6z6

